assets/svg/categories_marketplace.svg

<svg width="48" height="48" viewBox="0 0 48 48" fill="none" xmlns="http://www.w3.org/2000/svg">
<path d="M27.5361 16.8513L24.2876 21.5988C24.1498 21.8004 23.8517 21.8004 23.7139 21.5988L20.4654 16.8513C20.3079 16.6207 20.4729 16.3076 20.7523 16.3076H21.8614C21.9167 16.3076 21.9617 16.2626 21.9617 16.2073V10.526C21.9617 10.4213 22.0033 10.3209 22.0773 10.2469C22.1513 10.1729 22.2517 10.1313 22.3564 10.1313H25.6461C25.7507 10.1313 25.8511 10.1729 25.9252 10.2469C25.9992 10.3209 26.0408 10.4213 26.0408 10.526V16.2073C26.0408 16.2626 26.0858 16.3076 26.1411 16.3076H27.2501C27.5286 16.3066 27.6945 16.6207 27.5361 16.8513Z" fill="#0166FF"/>
<path d="M24.0809 43.9584C23.8999 43.9584 23.7527 43.8113 23.7527 43.6303C23.7527 43.4494 23.8999 43.3022 24.0809 43.3022H28.3662L28.0999 42.3506C27.7709 41.1731 26.6974 40.3594 25.4749 40.3594H22.639C20.8568 40.3594 19.4121 41.8041 19.4121 43.5863V43.9425C19.4121 44.7525 20.0693 45.4097 20.8793 45.4097H27.4362C28.1955 45.4097 28.7459 44.6897 28.5499 43.9584H24.0809Z" fill="#D4E1E8"/>
<path d="M14.5625 25.1382C14.5625 25.3389 14.6666 25.5179 14.84 25.6182L17.4481 27.1239V30.2336C17.4481 30.5317 17.6084 30.8101 17.8672 30.9592L23.5813 34.2582C23.7106 34.3332 23.855 34.3698 24.0003 34.3698C24.1456 34.3698 24.29 34.3323 24.4194 34.2582L30.1334 30.9592C30.2606 30.8854 30.3662 30.7795 30.4397 30.6522C30.5132 30.5249 30.5521 30.3806 30.5525 30.2336V28.8761C30.5525 28.6951 30.4053 28.5479 30.2244 28.5479C30.0434 28.5479 29.8963 28.6951 29.8963 28.8761V30.2336C29.8963 30.2982 29.8616 30.3582 29.8053 30.3911L24.3275 33.5532V27.5036L26.8334 28.9501C26.9188 28.9998 27.0144 29.0242 27.1109 29.0242C27.2066 29.0242 27.3031 28.9998 27.3884 28.9501L33.1588 25.6182C33.3322 25.5179 33.4363 25.3389 33.4363 25.1382C33.4363 24.9376 33.3322 24.7586 33.1588 24.6582L30.8788 23.342L33.1588 22.0257C33.2434 21.9775 33.3136 21.9076 33.3624 21.8233C33.4111 21.7389 33.4366 21.6432 33.4363 21.5457C33.4363 21.3451 33.3322 21.1661 33.1588 21.0657L28.4572 18.3517C28.3006 18.2607 28.1 18.3151 28.0091 18.4717C27.9181 18.6282 27.9725 18.8289 28.1291 18.9198L32.6778 21.5457L30.2225 22.9632L27.4775 21.3779C27.3209 21.287 27.1203 21.3414 27.0294 21.4979C26.9384 21.6545 26.9928 21.8551 27.1494 21.9461L29.5663 23.342L23.9994 26.5557L18.4325 23.3411L21.005 21.8561C21.1616 21.7651 21.2159 21.5645 21.125 21.4079C21.0341 21.2514 20.8334 21.197 20.6769 21.2879L17.7763 22.9632L15.3209 21.5457L19.8697 18.9189C20.0263 18.8279 20.0806 18.6273 19.9897 18.4707C19.8988 18.3142 19.6981 18.2598 19.5416 18.3507L14.84 21.0648C14.6666 21.1651 14.5625 21.3442 14.5625 21.5448C14.5625 21.7454 14.6666 21.9245 14.84 22.0248L17.12 23.3411L14.84 24.6573C14.6666 24.7586 14.5625 24.9376 14.5625 25.1382ZM18.1944 30.3911C18.1381 30.3592 18.1034 30.2982 18.1034 30.2336V27.5026L20.6103 28.9501C20.6956 28.9998 20.7922 29.0242 20.8878 29.0242C20.9834 29.0242 21.08 28.9998 21.1653 28.9501L23.6713 27.5036V33.5532L18.1944 30.3911ZM27.1109 28.3529L24.6556 26.9345L30.2225 23.7198L32.6778 25.1373L27.1109 28.3529ZM17.7763 23.7207L23.3431 26.9345L20.8878 28.352L15.3209 25.1382L17.7763 23.7207Z" fill="#9A9A9A"/>
<path d="M30.9569 1.17188H17.0444C14.4137 1.17188 12.2734 3.31219 12.2734 5.94281V8.77406C12.2734 8.955 12.4206 9.10219 12.6016 9.10219C12.7825 9.10219 12.9297 8.955 12.9297 8.77406V5.94281C12.9297 3.67406 14.7756 1.82812 17.0444 1.82812H30.9569C33.2256 1.82812 35.0716 3.67406 35.0716 5.94281V42.0581C35.0716 44.3269 33.2256 46.1728 30.9569 46.1728H17.0444C14.7756 46.1728 12.9297 44.3269 12.9297 42.0581V11.0016C12.9297 10.8206 12.7825 10.6734 12.6016 10.6734C12.4206 10.6734 12.2734 10.8206 12.2734 11.0016V42.0572C12.2734 44.6878 14.4137 46.8281 17.0444 46.8281H30.9569C33.5875 46.8281 35.7278 44.6878 35.7278 42.0572V5.94281C35.7269 3.31219 33.5866 1.17188 30.9569 1.17188Z" fill="#9A9A9A"/>
<path d="M26.6081 5.22414C27.2831 5.22414 27.8325 4.67477 27.8325 3.99977C27.8325 3.32477 27.2831 2.77539 26.6081 2.77539H21.3937C20.7187 2.77539 20.1694 3.32477 20.1694 3.99977C20.1694 4.67477 20.7187 5.22414 21.3937 5.22414H26.6081ZM27.1762 3.99977C27.1762 4.31289 26.9212 4.56789 26.6081 4.56789H25.2834C25.6556 4.30352 25.92 3.89945 26.0025 3.43258H26.6081C26.9212 3.43164 27.1762 3.68664 27.1762 3.99977ZM18.6562 43.9345C18.4753 43.9345 18.3281 44.0816 18.3281 44.2626C18.3281 44.4435 18.4753 44.5907 18.6562 44.5907H29.3466C29.5275 44.5907 29.6747 44.4435 29.6747 44.2626C29.6747 44.0816 29.5275 43.9345 29.3466 43.9345H18.6562Z" fill="#9A9A9A"/>
</svg>

<svg xmlns="http://www.w3.org/2000/svg" width="48" height="48" fill="none"><path fill="#0166FF" d="M27.536 16.851 24.288 21.6a.348.348 0 0 1-.574 0l-3.249-4.748a.348.348 0 0 1 .287-.543h1.11a.1.1 0 0 0 .1-.1v-5.682a.395.395 0 0 1 .394-.395h3.29a.395.395 0 0 1 .395.395v5.681a.1.1 0 0 0 .1.1h1.11a.347.347 0 0 1 .285.544"/><path fill="#D4E1E8" d="M24.08 43.958a.328.328 0 0 1 0-.656h4.286l-.266-.951a2.725 2.725 0 0 0-2.625-1.992h-2.836a3.227 3.227 0 0 0-3.227 3.227v.357c0 .81.657 1.467 1.467 1.467h6.557c.76 0 1.31-.72 1.114-1.452z"/><path fill="#9A9A9A" d="M14.563 25.138c0 .2.104.38.277.48l2.608 1.506v3.11c0 .298.16.576.42.725l5.713 3.3a.842.842 0 0 0 .838 0l5.714-3.3a.84.84 0 0 0 .42-.725v-1.358a.329.329 0 0 0-.657 0v1.358a.18.18 0 0 1-.09.157l-5.478 3.162v-6.05l2.505 1.447a.55.55 0 0 0 .555 0l5.77-3.332c.174-.1.278-.28.278-.48a.55.55 0 0 0-.277-.48l-2.28-1.316 2.28-1.316a.55.55 0 0 0 .277-.48.55.55 0 0 0-.277-.48l-4.702-2.714a.328.328 0 0 0-.328.568l4.549 2.626-2.455 1.417-2.745-1.585a.328.328 0 0 0-.329.568l2.417 1.396L24 26.556l-5.566-3.215 2.572-1.485a.328.328 0 0 0-.328-.568l-2.9 1.675-2.456-1.417 4.549-2.627a.328.328 0 0 0-.328-.568l-4.702 2.714a.55.55 0 0 0-.277.48c0 .2.104.38.277.48l2.28 1.316-2.28 1.316a.55.55 0 0 0-.277.481m3.631 5.253a.18.18 0 0 1-.09-.157v-2.731l2.506 1.447a.55.55 0 0 0 .555 0l2.506-1.446v6.05zm8.917-2.038-2.455-1.419 5.567-3.214 2.455 1.417zm-9.335-4.632 5.567 3.214-2.455 1.417-5.567-3.214z"/><path fill="#9A9A9A" d="M30.957 1.172H17.044a4.776 4.776 0 0 0-4.77 4.77v2.832a.329.329 0 0 0 .656 0V5.943a4.12 4.12 0 0 1 4.114-4.115h13.913a4.12 4.12 0 0 1 4.115 4.115v36.115a4.12 4.12 0 0 1-4.115 4.115H17.044a4.12 4.12 0 0 1-4.114-4.115V11.002a.329.329 0 0 0-.657 0v31.055c0 2.63 2.14 4.771 4.771 4.771h13.913c2.63 0 4.77-2.14 4.77-4.77V5.942c0-2.63-2.14-4.771-4.77-4.771"/><path fill="#9A9A9A" d="M26.608 5.224c.675 0 1.224-.55 1.224-1.224 0-.675-.549-1.225-1.224-1.225h-5.214a1.226 1.226 0 0 0 0 2.449zM27.176 4a.57.57 0 0 1-.568.568h-1.325c.373-.264.637-.669.72-1.135h.605c.313-.001.568.254.568.567m-8.52 39.935a.328.328 0 0 0 0 .656h10.69a.328.328 0 0 0 0-.657z"/></svg>
